X:227
T:McFadden's Handsome Daughter
Z: id:dc-reel-208
M:C
L:1/8
K:A Major
E3F A2cA|BABc ecBA|E3F A2af|ecBd cAAF|!
E3F A2cA|BABc ecBA|E3F A2af|ecBd cAA2|]!
aece fgaf|edcA BAFA|aece fgaf|edcB ABce|!
aece aecA|B3c BAFA|agfe fgaf|edcB ABcd|]!
e3f ecc2|ecac bBB2|cefg aecA|EFAd cAAc|!
e3f ecc2|ecac bBB2|cefg a3f|e2ce aecA|]!

